SharedPackages/Infrastructure/DesignResourcesKitIcons/Sources/DesignResourcesKitIcons/DesignSystemImages.xcassets/Color/16px/Identity-Theft-Restoration-Color-16.imageset/Identity-Theft-Restoration-Color-16.svg

<svg width="16" height="16" viewBox="0 0 16 16" fill="none" xmlns="http://www.w3.org/2000/svg">
<path d="M12.5 2C13.8807 2 15 3.11929 15 4.5V10.7949C14.7354 10.7573 14.4234 10.7178 14.1133 10.6816C14.0941 10.5365 14.0752 10.3928 14.0557 10.2578C14.0281 10.0671 13.9996 9.88486 13.9717 9.73145C13.9541 9.63488 13.9302 9.50767 13.8975 9.38965L13.8613 9.27637C13.6278 8.62262 13.0624 8.02783 12.2646 8.00098C11.4468 7.97372 10.8834 8.54574 10.6553 9.21777L10.6143 9.35352C10.5563 9.56999 10.4976 9.94516 10.4473 10.2949C10.4294 10.4189 10.4112 10.5494 10.3936 10.6807C9.91407 10.7365 9.42878 10.7977 9.12109 10.8525L8.94238 10.8887C8.24391 11.0518 7.51296 11.5901 7.5127 12.4873C7.51272 12.8417 7.62876 13.1395 7.80957 13.3809C7.58681 13.5462 7.40076 13.7578 7.2627 14H3.5C2.11929 14 1 12.8807 1 11.5V4.5C1 3.11929 2.11929 2 3.5 2H12.5Z" fill="#FFC95C"/>
<path d="M12 1C14.2091 1 16 2.79086 16 5V10.014C16 10.5222 15.5333 10.8945 15.0338 10.8008C15.0179 10.7979 15.0063 10.7958 15 10.7949V5C15 3.34315 13.6569 2 12 2H4C2.34315 2 1 3.34315 1 5V11C1 12.6569 2.34315 14 4 14H7.2627C7.22326 14.0692 7.18789 14.1415 7.15685 14.216C6.9862 14.6256 6.63888 15 6.19517 15H4C1.79086 15 2.37879e-07 13.2091 0 11V5C4.46038e-08 2.79086 1.79086 1 4 1H12Z" fill="#B66A1F"/>
<path d="M1 5H15V7H1V5Z" fill="#B66A1F"/>
<path d="M9.16934 11.863C8.29381 12.0672 8.29381 12.9087 9.16934 13.113C9.48607 13.1869 10.505 13.3044 11.2851 13.3882C11.3749 14.1163 11.5009 15.0673 11.5801 15.363C11.8026 16.1936 12.6968 16.1936 12.9193 15.363C12.9984 15.0679 13.124 14.12 13.2138 13.3924C14.0243 13.3084 15.0885 13.1881 15.3301 13.113C16.158 12.8554 16.2255 12.0719 15.3301 11.863C15.0139 11.7892 13.9983 11.6719 13.2188 11.5881C13.1287 10.8316 12.9998 9.83837 12.9193 9.61295C12.6405 8.83232 11.8085 8.75993 11.5801 9.61295C11.5009 9.90856 11.3749 10.8596 11.2851 11.5877C10.505 11.6715 9.48607 11.789 9.16934 11.863Z" fill="#4397E0"/>
<path d="M10 14.9879C10 15.5402 9.55228 15.9879 9 15.9879C8.44772 15.9879 8 15.5402 8 14.9879C8 14.4356 8.44772 13.9879 9 13.9879C9.55228 13.9879 10 14.4356 10 14.9879Z" fill="#A1D0F7"/>
</svg>

<svg fill="none" viewBox="0 0 16 16" xmlns="http://www.w3.org/2000/svg">
  <path fill="#FC3" d="M12.5 2A2.5 2.5 0 0 1 15 4.5v6.295a37.172 37.172 0 0 0-.887-.113l-.057-.424c-.028-.19-.056-.373-.084-.527a3.987 3.987 0 0 0-.074-.341l-.037-.114c-.233-.653-.799-1.248-1.596-1.275-.818-.027-1.382.545-1.61 1.217l-.04.136a9.777 9.777 0 0 0-.168.94c-.018.125-.036.255-.053.387-.48.056-.965.117-1.273.171l-.179.037c-.698.163-1.429.701-1.43 1.598 0 .355.117.652.298.894a2.01 2.01 0 0 0-.547.619H3.5A2.5 2.5 0 0 1 1 11.5v-7A2.5 2.5 0 0 1 3.5 2h9Z"/>
  <path fill="url(#Identity-Theft-Restoration-Color-16-1_svg__a)" d="M12 1a4 4 0 0 1 4 4v5.014a.808.808 0 0 1-1 .78V5a3 3 0 0 0-3-3H4a3 3 0 0 0-3 3v6a3 3 0 0 0 3 3h3.263c-.04.07-.075.142-.106.216-.17.41-.518.784-.962.784H4a4 4 0 0 1-4-4V5a4 4 0 0 1 4-4h8Z"/>
  <path fill="#92540C" d="M1 5h14v2H1V5Z"/>
  <path fill="#557FF3" d="M9.17 11.863c-.876.204-.876 1.046 0 1.25.316.074 1.335.191 2.115.275.09.728.216 1.68.295 1.975.223.83 1.117.83 1.34 0 .078-.295.204-1.243.294-1.97.81-.085 1.874-.205 2.116-.28.828-.258.896-1.041 0-1.25-.316-.074-1.332-.191-2.111-.275-.09-.756-.22-1.75-.3-1.975-.279-.78-1.11-.853-1.339 0-.08.296-.205 1.247-.295 1.975-.78.084-1.799.201-2.116.275Z"/>
  <path fill="#8FABF9" d="M10 14.988a1 1 0 1 1-2 0 1 1 0 0 1 2 0Z"/>
  <defs>
    <linearGradient id="Identity-Theft-Restoration-Color-16-1_svg__a" x1="8" x2="8" y1="1.5" y2="14.5" gradientUnits="userSpaceOnUse">
      <stop stop-color="#C18010"/>
      <stop offset="1" stop-color="#92540C"/>
    </linearGradient>
  </defs>
</svg>
